!!!!SEGMENT: pl-kk--kk-i-285--002_anonim--tulerunt-dominum-meum.krn
!!!cenid: 17xx:2099
!!!COM: Anonim
!!!COM-rismid: pe30004985
!!!CDT:
!!!CNT:
!!!OTL: Tulerunt Dominum meum
!!!PDT:
!!!AGN: Sacred
!!!SMS-siglum: PL-Kk
!!!SMS-shelfmark: Kk.I.285
!!!SMS-shelfwork: 002 W
!!!SMS-variant:
!!!SMS-altvar:
!!!NIFC-rismid: 1001147476
!!!URL-scan: http://repozytorium.nifc.pl/skany/pl-kk-nut--i-285
!!!ONB-nifc: UWAGA: utwory w zbiorze: 1. Senex puerum portabat, 2. Tulerunt Dominum meum
!!!key:
**kern	**text
*Iempty	*
*I"[Basso]	*
*I'B	*
*clefF4	*
*k[b-]	*
*B-:	*
*M2/1	*
*met(C|)	*
=1-	=1-
!LO:TX:t=P:problem:bemole:BB-, B- (jeden nad drugim)	!
00r	.
=2-	=2-
.	.
=3-	=3-
0r	.
=4-	=4-
2C/	Tu-
4C/	-le-
4BB-/	-runt
2.AA/	Do-
4GG/	-mi-
=5-	=5-
2FF/	-nu(m)
2FF/	me-
!LO:TX:t=P:problem:kreska pseudotaktowa	!
1F	-u(m)
=6-	=6-
!LO:TX:t=1.	!
0r	.
=7-	=7-
1BB-	tu-
2.BB-/	-le-
4C/	-runt
=8-	=8-
*2\right	*
2.D\	D(o)-
4E\	-(mi)-
2F\	-n(um)
2F\	me-
=9-	=9-
!LO:TX:t=P:problem:kreska pseudotaktowa	!
1C	-um
!LO:TX:t=1.	!
1r	.
=10-	=10-
1r	.
*	*ij
2F\	tu-
4F\	-le-
4G\	-runt
=11-	=11-
2A\	D(o)-
2F\	-(mi)-
1C	-n(um)
=12-	=12-
1C	me-
!LO:TX:t=P:problem:kreska pseudotaktowa	!
1F	-um
*	*Xij
=13-	=13-
0r	.
=14-	=14-
1r	.
2r	.
2D/	et
=15-	=15-
4.G\	nes-
8G\	-ci-
4G\	-o
2G\	u-
!LO:LB:g=original	!
4F#X\	-bi
4G\	po-
4D\	-su-
=16-	=16-
4E-X\	-e-
4BB-/	-runt
2Fny\	E-
2BB-/	-u(m)
*	*ij
2BB-/	et
=17-	=17-
4.B-\	nes-
8B-\	-ci-
4B-\	-o
2B-\	u-
4A\	-bi
4G\	po-
4G\	-su-
=18-	=18-
2A\	-e-
2F\	-runt
1G	e-
=19-	=19-
!LO:TX:a:t=P:problem:rozdzielacz słów	!
2C,</	-u(m)
*	*Xij
2C/	si
!LO:TX:t=P:problem:kreska pseudotaktowa	!
1F	Tu
=20-	=20-
1r	.
2r	.
2F\	si
=21-	=21-
4Eny\	tu
4D\	si
4E\	tu
4C/	Si
4D/	tu
4E/	E-
!LO:TX:t=P:problem:kreska pseudotaktowa	!
2F\	-um
=22-	=22-
0r	.
=23-	=23-
.	.
=24-	=24-
2r	.
1F	sus-
2E-X\	-tu-
=25-	=25-
2D/	-li-
2BB-/	-sti
1C	e-
=26-	=26-
2F\	-um
!LO:LB:g=original	!
2.F\	di-
4F\	-ci-
!LO:SIC:v:l:s=te	!
2F\	-to
=27-	=27-
1E-X	mi-
2D/	-hi
*	*ij
2.BB-/	di-
=28-	=28-
.	.
4BB-/	-ci-
!LO:SIC:v:l:s=te	!
2BB-/	-to
1F	mi-
=29-	=29-
!LO:TX:t=P:problem:kreska pseudotaktowa	!
1C	-hi
*	*Xij
00r	.
=30-	=30-
.	.
=31-	=31-
.	.
0r	.
=32-	=32-
.	.
2r	.
1F\	sus-
=33-	=33-
.	.
2G\	-tu-
2A\	-li-
2B-\	-sti
=34-	=34-
1G	E-
2F\	-um
2F\	si
=35-	=35-
!LO:TX:t=P:problem:kreska pseudotaktowa	!
1C	tu
00r	.
=36-	=36-
.	.
=37-	=37-
.	.
2r	.
1F\	sus-
=38-	=38-
.	.
2G\	-tu-
2A\	-li-
2B-\	-sti
=39-	=39-
1G	E-
2F\	-um
2.F\	di-
=40-	=40-
.	.
4F\	-ci-
!LO:SIC:v:l:s=te	!
2F\	-to
1E-X	mi-
!LO:LB:g=original	!
=41-	=41-
2D/	-hi
*	*ij
2.BB-/	di-
4BB-/	-ci-
!LO:SIC:v:l:s=te	!
2BB-/	-to
=42-	=42-
1F	mi-
!LO:TX:t=P:problem:kreska pseudotaktowa	!
1C	-hi
*	*Xij
=43-	=43-
0r	.
=44-	=44-
.	.
=45-	=45-
1r	.
2r	.
2G\	al-
=46-	=46-
4F\	-le-
4Eny\	.
4F\	.
4D\	.
4E\	.
4F\	.
4G\	.
4E\	.
=47-	=47-
4F\	.
4E\	.
2E\	.
1D	-lu-
=48-	=48-
!LO:TX:t=P:problem:kreska pseudotaktowa	!
1C	-ia
0r	.
=49-	=49-
.	.
2r	.
*	*ij
2F\	al-
=50-	=50-
4E-X\	-le-
4D\	.
4E-\	.
!LO:TX:t=P:problem:kreska pseudotaktowa	!
4C/	.
4D/	.
4BB-/	.
4C/	.
4D/	.
=51-	=51-
2C/	.
2C/	-lu-
!LO:TX:t=P:problem:kreska pseudotaktowa	!
1G	-ia
=52-	=52-
2r	.
2F\	al-
!LO:LB:g=original	!
2BB-/	-le-
2D/	-lu-
=53-	=53-
0C	-ia
=54-	=54-
2r	.
2.F\	al-
4Eny\	.
4D\	.
4C/	.
=55-	=55-
2BB-/	.
2AA/	-le-
1BB-	-lu-
=56-	=56-
0Fl;	-ia
*	*Xij
==	==
*-	*-
!!!RDF**kern: < = below
!!!RDF**kern: l = terminal long
!!!AIN: 1 empty
!!!ENC: Marta Lawrence
!!!END: 2021-03-31
!!!ENC: Kamil Watkowski
!!!END: 2021-03-11
